!!!!SEGMENT: pl-kk--kk-i-173_anonim--haec-dies-quam-fecit-dominus.krn
!!!cenid: 17xx:2165
!!!COM: Anonim
!!!COM-rism: pe30004985
!!!CDT:
!!!CNT:
!!!OTL: Haec dies quam fecit Dominus
!!!PDT:
!!!AGN: Sacred
!!!SMS-siglum: PL-Kk
!!!SMS-shelfmark: Kk.I.173
!!!NIFC-rismID: 1001147362
!!!URL-scan: http://repozytorium.nifc.pl/skany/pl-kk-nut--i-173
!!!ONB-nifc: UWAGA: brak głosów A, T, B.
!!!SMS-variant:
!!!SMS-altvar:
**kern	**kern	**kern	**kern	**text
*part4	*part3	*part2	*part1	*part1
*staff4	*staff3	*staff2	*staff1	*staff1
*group1	*group1	*group1	*group1	*
*I"Baſso.	*I"Tenore	*I"Alto	*I"Canto	*
*I'B	*I'T	*I'A	*I'S	*
*clefF4	*clefC4	*clefC3	*clefC1	*
*k[]	*k[]	*k[]	*k[]	*
*M4/4	*M4/4	*M4/4	*M4/4	*
*met(c)	*met(c)	*met(c)	*met(c)	*
*	*	*	*all\right	*
=1	=1	=1	=1	=1
!LO:TX:t=P:problem:brak partii w źródle	!LO:TX:t=P:problem:brak partii w źródle	!LO:TX:t=P:problem:brak partii w źródle	!	!
1ryy	1ryy	1ryy	4ee\	Haec
.	.	.	4r	.
*	*	*	*	*ij
.	.	.	4dd\	Haec
*	*	*	*	*Xij
.	.	.	8r	.
.	.	.	8dd\	haec
=2	=2	=2	=2	=2
1ryy	1ryy	1ryy	4cc\	di-
.	.	.	(16ee\LL	-es
.	.	.	16dd\JJ)	.
.	.	.	(16ee\LL	qvam
.	.	.	16cc\JJ)	.
.	.	.	8ff\	fe-
.	.	.	8cc\	-cit
.	.	.	8cc\	fe-
.	.	.	8b\	-cit
=3	=3	=3	=3	=3
1ryy	1ryy	1ryy	8.cc\	Do-
!	!	!	!LO:TX:t=P:problem:8cc poprawione na 16cc	!
.	.	.	16cc\	-mi-
.	.	.	8ee\	-nuſ
.	.	.	8cc\	qva(m)
.	.	.	8a\	fe-
!	!	!	!LO:TX:t=P:problem:rozdzielacz słów na dole:global	!
.	.	.	8cc,<\	-cit
*	*	*	*	*ij
.	.	.	8cc\	fe-
.	.	.	8b\	-cit
*	*	*	*	*Xij
=4	=4	=4	=4	=4
1ryy	1ryy	1ryy	8.cc\	Do-
!	!	!	!LO:TX:t=P:problem:8cc poprawione na 16cc	!
.	.	.	16cc\	-mi-
.	.	.	8cc,<\	-nus
!	!	!	!LO:LB:g=original	!
.	.	.	8cc\	qvam
.	.	.	8b\	fe-
!	!	!	!LO:SIC:v:l:s=-cit	!
.	.	.	8b\	-cet
.	.	.	8r	.
.	.	.	8dd\	qvam
=5	=5	=5	=5	=5
1ryy	1ryy	1ryy	8b\	fe-
.	.	.	8b\	-cit
.	.	.	8b\	fe-
.	.	.	8a\	-cit
.	.	.	8.b\	Do-
.	.	.	16cc\	-mi-
.	.	.	8dd\	-nuſ
.	.	.	8dd\	qva(m)
=6	=6	=6	=6	=6
1ryy	1ryy	1ryy	8b\	fe-
.	.	.	8b\	-cit
.	.	.	8b\	fe-
.	.	.	8a\	-cit
.	.	.	8.b\	Do-
.	.	.	16b\	-mi-
.	.	.	8dd\	-nuſ
.	.	.	8b,<\	qva(m),
!	!	!	!LO:LB:g=original	!
=7	=7	=7	=7	=7
1ryy	1ryy	1ryy	8ee\	fe-
.	.	.	8dd\	-cit
.	.	.	8cc\	fe-
.	.	.	8dd\	-cit
.	.	.	8.cc\	Do-
.	.	.	16dd\	-mi-
.	.	.	8ee\	-nuſ
.	.	.	8dd\	qvam
=8	=8	=8	=8	=8
1ryy	1ryy	1ryy	8cc\	fe-
.	.	.	8dd\	-cit
.	.	.	8ee\	fe-
.	.	.	8dd\	-cit
.	.	.	8.cc\	Do-
.	.	.	16cc\	-mi-
.	.	.	8.cc\	-nus
.	.	.	16b\	qva(m)
=9	=9	=9	=9	=9
1ryy	1ryy	1ryy	8cc\	fe-
.	.	.	8cc\	-cit
.	.	.	8r	.
.	.	.	8b\	qva(m)
.	.	.	4cc\	fe-
!	!	!	!LO:LB:g=original	!
.	.	.	4dd\	-cit
=10	=10	=10	=10	=10
1ryy	1ryy	1ryy	4ee\	qva(m)
.	.	.	8ee\	fe-
.	.	.	8dd\	-cit
.	.	.	8cc\	fe-
.	.	.	8cc\	-cit
.	.	.	8r	.
.	.	.	8dd\	qvam
=11	=11	=11	=11	=11
1ryy	1ryy	1ryy	8ee\	fe-
.	.	.	8ee\	-cit
.	.	.	8r	.
.	.	.	8dd\	qvam
.	.	.	8cc\	fe-
.	.	.	8cc\	-cit
.	.	.	8r	.
*	*	*	*	*ij
.	.	.	8b\	qvam
=12	=12	=12	=12	=12
1ryy	1ryy	1ryy	8cc\	fe-
.	.	.	8cc\	-cit
*	*	*	*	*Xij
.	.	.	8r	.
.	.	.	8ee\	qvam
.	.	.	(16ff\LL	fe-
.	.	.	16ee\JJ)	.
.	.	.	(16dd\LL	-cit
.	.	.	16cc\JJ)	.
!	!	!	!LO:LB:g=original	!
.	.	.	8.b\	Do-
.	.	.	16b\	-mi-
=13	=13	=13	=13	=13
1ryy	1ryy	1ryy	8cc\	-nuſ
.	.	.	8cc\	qva(m)
.	.	.	8b\	fe-
.	.	.	8b\	-cit
.	.	.	8cc\	fe-
.	.	.	8cc\	-cit
.	.	.	8r	.
.	.	.	8b\	qva(m)
=14	=14	=14	=14	=14
1ryy	1ryy	1ryy	8cc\L	fe-
.	.	.	8b\	.
.	.	.	8cc\	.
.	.	.	8b\J	.
.	.	.	8cc\	.
.	.	.	8cc,<\	-cit
.	.	.	8r	.
.	.	.	8b\	q(va)m
=15	=15	=15	=15	=15
1ryy	1ryy	1ryy	8cc\L	fe-
.	.	.	8b\	.
.	.	.	8cc\	.
.	.	.	8b\J	.
.	.	.	8cc\	.
.	.	.	8ff\	-cit
.	.	.	8.ee\	Do-
!	!	!	!LO:TX:t=P:problem:niekompletne źródło, brak kreski taktowej	!
.	.	.	16ee\	-mi-
!	!	!	!LO:LB:g=original	!
=16	=16	=16	=16	=16
1ryy	1ryy	1ryy	8ee\	-nus
.	.	.	8ee\	q(va)m
.	.	.	8ff\	fe-
.	.	.	8ff\	-cit
.	.	.	8r	.
.	.	.	8dd\	qvam
.	.	.	8cc\	fe-
.	.	.	8dd\	-cit
=17	=17	=17	=17	=17
1ryy	1ryy	1ryy	4ee\	fe-
.	.	.	8ee\	-cit
.	.	.	8dd\	q(va)m
.	.	.	8ee\	fe-
.	.	.	8dd\	-cit
.	.	.	8cc\	fe-
.	.	.	8dd\	-cit
=18	=18	=18	=18	=18
1ryy	1ryy	1ryy	8.ee\	Do-
.	.	.	16ff\	-mi-
.	.	.	8gg\	-nus
.	.	.	8ee\	q(va)m
.	.	.	4.dd\	fe-
.	.	.	(16cc\LL	.
!	!	!	!LO:TX:t=P:problem:niekompletne źródło, brak kreski taktowej	!
.	.	.	16dd\JJ)	.
!	!	!	!LO:LB:g=original	!
=19	=19	=19	=19	=19
1ryy	1ryy	1ryy	8ee\	-cit
.	.	.	8r	.
.	.	.	8r	.
.	.	.	8cc\	qvam
.	.	.	8cc\	fe-
.	.	.	8cc\	-cit
.	.	.	8cc\	fe-
.	.	.	8cc\	-cit
=20	=20	=20	=20	=20
1ryy	1ryy	1ryy	8.cc\	Do-
.	.	.	16b\	-mi-
.	.	.	8a\	-nuſ
.	.	.	8cc\	q(va)m
.	.	.	8cc\	fe-
.	.	.	8cc\	-cit
.	.	.	8cc\	fe-
.	.	.	8cc\	-cit
=21	=21	=21	=21	=21
1ryy	1ryy	1ryy	8.cc\	Do-
.	.	.	16cc\	-mi-
.	.	.	8cc\	-nuſ
.	.	.	8ff\	q(va)m
.	.	.	8dd\	fe-
.	.	.	8ee\	-cit
!	!	!	!LO:LB:g=original	!
.	.	.	8.dd\	Do-
.	.	.	16dd\	-mi-
=22	=22	=22	=22	=22
1ryy	1ryy	1ryy	8ee\	-nuſ
.	.	.	8ee\	qvam
.	.	.	8dd\	fe-
.	.	.	8dd\	-cit
.	.	.	8r	.
.	.	.	8cc\	qvam
.	.	.	8dd\	fe-
.	.	.	8dd\	-cit
=23	=23	=23	=23	=23
1ryy	1ryy	1ryy	8r	.
.	.	.	8ee\	qvam
.	.	.	8dd\	fe-
.	.	.	8dd\	-cit
.	.	.	8r	.
*	*	*	*	*ij
.	.	.	8cc\	qvam
.	.	.	8dd\	fe-
.	.	.	8dd\	-cit
*	*	*	*	*Xij
=24	=24	=24	=24	=24
1ryy	1ryy	1ryy	4.ee\	Do-
.	.	.	8dd\	-mi-
.	.	.	4ee\	-nuſ
.	.	.	8r	.
.	.	.	8dd\	qva(m)
!	!	!	!LO:LB:g=original	!
=25	=25	=25	=25	=25
1ryy	1ryy	1ryy	4.ee\	fe-
.	.	.	8dd\	-cit
.	.	.	8.cc\	Do-
.	.	.	16dd\	-mi-
.	.	.	8ee\	-nuſ
.	.	.	8dd\	q(va)m
=26	=26	=26	=26	=26
1ryy	1ryy	1ryy	4.cc\	fe-
.	.	.	8dd\	-cit
.	.	.	8.cc\	Do-
.	.	.	16dd\	-mi-
.	.	.	8ee\	-nuſ
.	.	.	8ee\	qvam
=27	=27	=27	=27	=27
1ryy	1ryy	1ryy	16dd\LL	fe-
.	.	.	16cc\	.
.	.	.	16dd\	.
.	.	.	16ee\JJ	.
.	.	.	16dd\LL	.
.	.	.	16ee\	.
.	.	.	16cc\	.
.	.	.	16dd\JJ	.
.	.	.	4ee\	-cit
.	.	.	8r	.
.	.	.	8dd\	q(va)m
=28	=28	=28	=28	=28
1ryy	1ryy	1ryy	4.ee\	fe-
.	.	.	8dd\	-cit
.	.	.	8.ee\	Do-
.	.	.	16ff\	-m[i]-
!	!	!	!LO:LB:g=original	!
.	.	.	8gg\	-nuſ
.	.	.	8ee\	qvam
=29	=29	=29	=29	=29
1ryy	1ryy	1ryy	4.dd\	fe-
.	.	.	16cc\LL	.
.	.	.	16dd\JJ	.
.	.	.	4ee\	-cit
.	.	.	4r	.
=30||	=30||	=30||	=30||	=30||
*M2/4	*M2/4	*M2/4	*M2/4	*
!	!	!	!LO:TX:a:t=14	!
2ryy	2ryy	2ryy	0r	.
=31	=31	=31	=31	=31
2ryy	2ryy	2ryy	.	.
=32	=32	=32	=32	=32
2ryy	2ryy	2ryy	.	.
=33	=33	=33	=33	=33
2ryy	2ryy	2ryy	.	.
=34	=34	=34	=34	=34
2ryy	2ryy	2ryy	0r	.
=35	=35	=35	=35	=35
2ryy	2ryy	2ryy	.	.
=36	=36	=36	=36	=36
2ryy	2ryy	2ryy	.	.
=37	=37	=37	=37	=37
2ryy	2ryy	2ryy	.	.
=38	=38	=38	=38	=38
2ryy	2ryy	2ryy	0r	.
=39	=39	=39	=39	=39
2ryy	2ryy	2ryy	.	.
=40	=40	=40	=40	=40
2ryy	2ryy	2ryy	.	.
=41	=41	=41	=41	=41
2ryy	2ryy	2ryy	.	.
=42	=42	=42	=42	=42
2ryy	2ryy	2ryy	1r	.
=43	=43	=43	=43	=43
2ryy	2ryy	2ryy	.	.
=44	=44	=44	=44	=44
2ryy	2ryy	2ryy	4r	.
.	.	.	16a\LL	E-
.	.	.	16b\JJ	.
.	.	.	16cc\LL	-xul-
.	.	.	16dd\JJ	.
=45	=45	=45	=45	=45
2ryy	2ryy	2ryy	8ee\	-te-
.	.	.	16dd\LL	-mus
.	.	.	16cc\JJ	.
.	.	.	8dd\	et
.	.	.	16ee\LL	lae-
.	.	.	16b\JJ	-te-
=46	=46	=46	=46	=46
2ryy	2ryy	2ryy	8cc\	-mur
.	.	.	8a\	.
.	.	.	4r	.
=47	=47	=47	=47	=47
!	!	!	!LO:TX:a:t=13	!
2ryy	2ryy	2ryy	0r	.
=48	=48	=48	=48	=48
2ryy	2ryy	2ryy	.	.
=49	=49	=49	=49	=49
2ryy	2ryy	2ryy	.	.
=50	=50	=50	=50	=50
2ryy	2ryy	2ryy	.	.
=51	=51	=51	=51	=51
2ryy	2ryy	2ryy	0r	.
=52	=52	=52	=52	=52
2ryy	2ryy	2ryy	.	.
=53	=53	=53	=53	=53
2ryy	2ryy	2ryy	.	.
=54	=54	=54	=54	=54
2ryy	2ryy	2ryy	.	.
=55	=55	=55	=55	=55
2ryy	2ryy	2ryy	0r	.
=56	=56	=56	=56	=56
2ryy	2ryy	2ryy	.	.
=57	=57	=57	=57	=57
2ryy	2ryy	2ryy	.	.
=58	=58	=58	=58	=58
2ryy	2ryy	2ryy	.	.
=59	=59	=59	=59	=59
2ryy	2ryy	2ryy	2r	.
!	!	!	!LO:LB:g=original	!
=60	=60	=60	=60	=60
2ryy	2ryy	2ryy	4r	.
.	.	.	(16a\LL	e-
.	.	.	16b\JJ)	.
.	.	.	(16cc\LL	-xul-
.	.	.	16dd\JJ)	.
=61	=61	=61	=61	=61
2ryy	2ryy	2ryy	8ee\	-te-
.	.	.	(16dd\LL	-muſ
.	.	.	16cc\JJ)	.
.	.	.	8dd\	et
.	.	.	(16ee\LL	lae-
.	.	.	16b\JJ)	.
=62	=62	=62	=62	=62
2ryy	2ryy	2ryy	8cc\	-te-
.	.	.	8a\	-mur
.	.	.	(16cc\LL	et
.	.	.	16b\JJ)	.
.	.	.	(16a\LL	lae-
.	.	.	16b\JJ)	.
=63	=63	=63	=63	=63
2ryy	2ryy	2ryy	16b\LL	-te-
.	.	.	16e\	.
.	.	.	16b\	.
.	.	.	16ee\JJ	.
.	.	.	16dd#X\LL	.
.	.	.	16ee\	.
.	.	.	16ff\	.
.	.	.	16dd#\JJ	.
=64	=64	=64	=64	=64
2ryy	2ryy	2ryy	8ee\	.
.	.	.	8b\	-mur
.	.	.	8cc\	et
.	.	.	8b\	lae-
!	!	!	!LO:LB:g=original	!
=65	=65	=65	=65	=65
2ryy	2ryy	2ryy	4a\	-te-
.	.	.	16a\LL	.
.	.	.	16cc\	.
.	.	.	16b\	.
.	.	.	16a\JJ	.
=66	=66	=66	=66	=66
2ryy	2ryy	2ryy	8g/	-mur
.	.	.	16a\LL	in
.	.	.	16g\JJ	.
.	.	.	4f/	e-
=67	=67	=67	=67	=67
2ryy	2ryy	2ryy	4e/	-a.
.	.	.	4r	.
=68	=68	=68	=68	=68
!	!	!	!LO:TX:a:t=8	!
2ryy	2ryy	2ryy	0r	.
=69	=69	=69	=69	=69
2ryy	2ryy	2ryy	.	.
=70	=70	=70	=70	=70
2ryy	2ryy	2ryy	.	.
=71	=71	=71	=71	=71
2ryy	2ryy	2ryy	.	.
=72	=72	=72	=72	=72
2ryy	2ryy	2ryy	0r	.
=73	=73	=73	=73	=73
2ryy	2ryy	2ryy	.	.
=74	=74	=74	=74	=74
2ryy	2ryy	2ryy	.	.
=75	=75	=75	=75	=75
2ryy	2ryy	2ryy	.	.
=76	=76	=76	=76	=76
2ryy	2ryy	2ryy	4r	.
.	.	.	(16ee\LL	E-
.	.	.	16dd\JJ)	.
.	.	.	(16cc\LL	-xul-
.	.	.	16b\JJ)	.
=77	=77	=77	=77	=77
2ryy	2ryy	2ryy	8cc\	-te-
.	.	.	8b\	-muſ
.	.	.	(16a\LL	et
.	.	.	16cc\JJ)	.
.	.	.	16b\LL	lae-
.	.	.	16a\JJ	.
=78	=78	=78	=78	=78
2ryy	2ryy	2ryy	8g#X/	-te-
.	.	.	8e/	-mur
.	.	.	16ee\LL	lae-
.	.	.	16dd\	.
.	.	.	16cc\	.
.	.	.	16dd\JJ	.
!	!	!	!LO:LB:g=original	!
=79	=79	=79	=79	=79
2ryy	2ryy	2ryy	16ff\LL	.
.	.	.	16gg\	.
.	.	.	16ff\	.
.	.	.	16ee\JJ	.
.	.	.	16dd\LL	.
.	.	.	16cc\	.
.	.	.	16b\	.
.	.	.	16dd\JJ	.
=80	=80	=80	=80	=80
2ryy	2ryy	2ryy	16ee\LL	.
.	.	.	16ff\	.
.	.	.	16ee\	.
.	.	.	16dd\JJ	.
.	.	.	16cc\LL	.
.	.	.	16b\	.
.	.	.	16a\	.
.	.	.	16cc\JJ	.
=81	=81	=81	=81	=81
2ryy	2ryy	2ryy	16dd\LL	.
.	.	.	16ee\	.
.	.	.	16dd\	.
.	.	.	16cc\JJ	.
.	.	.	16b\LL	.
.	.	.	16a\	.
!	!	!	!LO:TX:a:t=P:problem:# above	!
.	.	.	16g#X\	.
.	.	.	16b\JJ	.
=82	=82	=82	=82	=82
2ryy	2ryy	2ryy	16cc\LL	.
.	.	.	16dd\	.
.	.	.	16cc\	.
.	.	.	16b\JJ	.
.	.	.	16a\LL	.
.	.	.	16cc\	.
.	.	.	16b\	.
.	.	.	16a\JJ	.
=83	=83	=83	=83	=83
2ryy	2ryy	2ryy	8g/	.
.	.	.	8e/	-mur
.	.	.	8ee\	et
.	.	.	8ee\	lae-
=84	=84	=84	=84	=84
2ryy	2ryy	2ryy	16ff\LL	-te-
.	.	.	16ee\JJ	.
.	.	.	16dd\	-mur
.	.	.	16cc\	in
.	.	.	4b\	e-
=85	=85	=85	=85	=85
2ryy	2ryy	2ryy	4a\	-a
!	!	!	!LO:TX:t=P:problem:niekompletne źródło, brak kreski taktowej	!
.	.	.	4r	.
!	!	!	!LO:LB:g=original	!
=86	=86	=86	=86	=86
!	!	!	!LO:TX:a:t=12	!
2ryy	2ryy	2ryy	0r	.
=87	=87	=87	=87	=87
2ryy	2ryy	2ryy	.	.
=88	=88	=88	=88	=88
2ryy	2ryy	2ryy	.	.
=89	=89	=89	=89	=89
2ryy	2ryy	2ryy	.	.
=90	=90	=90	=90	=90
2ryy	2ryy	2ryy	0r	.
=91	=91	=91	=91	=91
2ryy	2ryy	2ryy	.	.
=92	=92	=92	=92	=92
2ryy	2ryy	2ryy	.	.
=93	=93	=93	=93	=93
2ryy	2ryy	2ryy	.	.
=94	=94	=94	=94	=94
2ryy	2ryy	2ryy	0r	.
=95	=95	=95	=95	=95
2ryy	2ryy	2ryy	.	.
=96	=96	=96	=96	=96
2ryy	2ryy	2ryy	.	.
=97	=97	=97	=97	=97
2ryy	2ryy	2ryy	.	.
=98	=98	=98	=98	=98
2ryy	2ryy	2ryy	8r	.
.	.	.	16a\LL	e-
.	.	.	16b\JJ	.
.	.	.	16cc\LL	-xul-
.	.	.	16b\	.
.	.	.	16a\	.
.	.	.	16cc\JJ	.
=99	=99	=99	=99	=99
2ryy	2ryy	2ryy	8b\	-te-
.	.	.	4e/	-mus
.	.	.	8cc\	et
=100	=100	=100	=100	=100
2ryy	2ryy	2ryy	16dd\LL	lae-
.	.	.	16cc\	-te-
.	.	.	16dd\	.
.	.	.	16ee\JJ	.
.	.	.	16dd\LL	.
.	.	.	16ff\	.
.	.	.	16ee\	.
.	.	.	16dd\JJ	.
=101	=101	=101	=101	=101
2ryy	2ryy	2ryy	8cc\	.
.	.	.	8a\	-mur
.	.	.	(16a\LL	et
.	.	.	16b\JJ)	.
.	.	.	(16cc\LL	lae-
.	.	.	16dd\JJ)	.
=102	=102	=102	=102	=102
2ryy	2ryy	2ryy	8ee\L	-te-
.	.	.	8a\	.
.	.	.	8ff\	.
.	.	.	8a\J	.
=103	=103	=103	=103	=103
2ryy	2ryy	2ryy	8ee\L	.
.	.	.	8a\	.
.	.	.	8ff\	.
.	.	.	8a\J	.
=104	=104	=104	=104	=104
2ryy	2ryy	2ryy	8ee,<\	-mur,
.	.	.	4ee\	et
.	.	.	16dd\LL	[lae]-
!	!	!	!LO:TX:t=P:problem:niekompletne źródło, brak kreski taktowej	!
.	.	.	16cc\JJ	.
!	!	!	!LO:LB:g=original	!
=105	=105	=105	=105	=105
2ryy	2ryy	2ryy	16b\LL	-te-
.	.	.	16e\	.
.	.	.	16f\	.
.	.	.	16g\JJ	.
.	.	.	16a\LL	.
.	.	.	16b\	.
.	.	.	16cc\	.
.	.	.	16dd\JJ	.
=106	=106	=106	=106	=106
2ryy	2ryy	2ryy	8ee\	.
.	.	.	16dd,<\	-mur
.	.	.	16cc\	in
.	.	.	4b\	e-
=107	=107	=107	=107	=107
2ryy	2ryy	2ryy	4a\	-a
.	.	.	4r	.
=108	=108	=108	=108	=108
2ryy	2ryy	2ryy	0r	.
=109	=109	=109	=109	=109
2ryy	2ryy	2ryy	.	.
=110	=110	=110	=110	=110
2ryy	2ryy	2ryy	.	.
=111	=111	=111	=111	=111
2ryy	2ryy	2ryy	.	.
=112	=112	=112	=112	=112
2ryy	2ryy	2ryy	0r	.
=113	=113	=113	=113	=113
2ryy	2ryy	2ryy	.	.
=114	=114	=114	=114	=114
2ryy	2ryy	2ryy	.	.
=115	=115	=115	=115	=115
2ryy	2ryy	2ryy	.	.
=116	=116	=116	=116	=116
2ryy	2ryy	2ryy	0r	.
=117	=117	=117	=117	=117
2ryy	2ryy	2ryy	.	.
=118	=118	=118	=118	=118
2ryy	2ryy	2ryy	.	.
=119	=119	=119	=119	=119
2ryy	2ryy	2ryy	.	.
=120	=120	=120	=120	=120
2ryy	2ryy	2ryy	0r	.
=121	=121	=121	=121	=121
2ryy	2ryy	2ryy	.	.
=122	=122	=122	=122	=122
2ryy	2ryy	2ryy	.	.
=123	=123	=123	=123	=123
2ryy	2ryy	2ryy	.	.
=124	=124	=124	=124	=124
2ryy	2ryy	2ryy	0r	.
=125	=125	=125	=125	=125
2ryy	2ryy	2ryy	.	.
=126	=126	=126	=126	=126
2ryy	2ryy	2ryy	.	.
=127	=127	=127	=127	=127
2ryy	2ryy	2ryy	.	.
=128	=128	=128	=128	=128
!	!	!	!LO:TX:b:t=Verte ad Alleluja.	!
!	!	!	!LO:TX:a:t=1	!
2ryy	2ryy	2ryy	2r	.
!	!	!	!LO:PB:g=original	!
=129||	=129||	=129||	=129||;	=129||
*M2/2	*M2/2	*M2/2	*M2/2	*
*met(C|r)	*met(C|r)	*met(C|r)	*met(C|r)	*
!	!	!	!LO:TX:a:B:t=allo.	!
1ryy	1ryy	1ryy	00r	.
=130	=130	=130	=130	=130
1ryy	1ryy	1ryy	.	.
=131	=131	=131	=131	=131
1ryy	1ryy	1ryy	.	.
=132	=132	=132	=132	=132
1ryy	1ryy	1ryy	.	.
=133	=133	=133	=133	=133
1ryy	1ryy	1ryy	00r	.
=134	=134	=134	=134	=134
1ryy	1ryy	1ryy	.	.
=135	=135	=135	=135	=135
1ryy	1ryy	1ryy	.	.
=136	=136	=136	=136	=136
1ryy	1ryy	1ryy	.	.
=137	=137	=137	=137	=137
1ryy	1ryy	1ryy	1g	al-
=138	=138	=138	=138	=138
1ryy	1ryy	1ryy	1a	-le-
=139	=139	=139	=139	=139
1ryy	1ryy	1ryy	4b\	-lu-
.	.	.	4g\	.
.	.	.	1cc	.
=140	=140	=140	=140-	=140
1ryy	1ryy	1ryy	.	.
*	*	*	*2\right	*
.	.	.	2b\	.
=141	=141	=141	=141	=141
1ryy	1ryy	1ryy	2cc\	-ja
.	.	.	2b\	al-
=142	=142	=142	=142	=142
1ryy	1ryy	1ryy	2a\	-le-
.	.	.	2a\	-lu-
=143	=143	=143	=143	=143
1ryy	1ryy	1ryy	2g/	-ja
.	.	.	2r	.
=144	=144	=144	=144	=144
1ryy	1ryy	1ryy	1cc	al-
=145	=145	=145	=145	=145
1ryy	1ryy	1ryy	1dd	-le-
=146	=146	=146	=146	=146
1ryy	1ryy	1ryy	4ee\	-lu-
.	.	.	4cc\	.
.	.	.	1gg	.
=147	=147	=147	=147-	=147
1ryy	1ryy	1ryy	.	.
.	.	.	2ff#X\	.
=148	=148	=148	=148	=148
1ryy	1ryy	1ryy	2gg\	-ja
.	.	.	2dd\	al-
=149	=149	=149	=149	=149
1ryy	1ryy	1ryy	2ee\	-le-
.	.	.	2ff\	-lu-
=150	=150	=150	=150	=150
1ryy	1ryy	1ryy	1ffn	-ja
!	!	!	!LO:LB:g=original	!
=151	=151	=151	=151	=151
1ryy	1ryy	1ryy	2ee\	al-
.	.	.	2dd\	-le-
=152	=152	=152	=152	=152
1ryy	1ryy	1ryy	4cc\	.
.	.	.	4dd\	.
.	.	.	4ee\	.
.	.	.	4dd\	.
=153	=153	=153	=153	=153
1ryy	1ryy	1ryy	4cc\	.
.	.	.	4dd\	.
.	.	.	4ee\	.
.	.	.	4dd\	-lu-
=154	=154	=154	=154	=154
1ryy	1ryy	1ryy	4cc\	-ja
.	.	.	2gg\	al-
.	.	.	8ff\L	-le-
.	.	.	8ee\J	.
=155	=155	=155	=155	=155
1ryy	1ryy	1ryy	4dd\	-lu-
.	.	.	4g/	.
.	.	.	1cc	.
=156	=156	=156	=156-	=156
1ryy	1ryy	1ryy	.	.
.	.	.	2b\	.
=157	=157	=157	=157	=157
1ryy	1ryy	1ryy	1cc	-ja
=158	=158	=158	=158	=158
1ryy	1ryy	1ryy	2r	.
.	.	.	2b\	al-
=159	=159	=159	=159	=159
1ryy	1ryy	1ryy	2cc\	-le-
.	.	.	2cc\	-lu-
=160	=160	=160	=160	=160
1ryy	1ryy	1ryy	2b\	-ja
.	.	.	2g/	al-
=161	=161	=161	=161	=161
1ryy	1ryy	1ryy	1a	-le-
=162	=162	=162	=162	=162
1ryy	1ryy	1ryy	4b\	-lu-
.	.	.	4g\	.
.	.	.	1b	.
!	!	!	!LO:LB:g=original	!
=163	=163	=163	=163-	=163
1ryy	1ryy	1ryy	.	.
.	.	.	2b\	.
=164	=164	=164	=164	=164
1ryy	1ryy	1ryy	2cc\	-ja
.	.	.	2b\	al-
=165	=165	=165	=165	=165
1ryy	1ryy	1ryy	1a	-le-
=166	=166	=166	=166	=166
1ryy	1ryy	1ryy	2g/	-lu-
.	.	.	2dd\	.
=167	=167	=167	=167	=167
1ryy	1ryy	1ryy	1cc	.
=168	=168	=168	=168	=168
1ryy	1ryy	1ryy	2b\	-ja
.	.	.	2ee\	al-
=169	=169	=169	=169	=169
1ryy	1ryy	1ryy	1dd	-le-
=170	=170	=170	=170	=170
1ryy	1ryy	1ryy	2g/	.
.	.	.	2b\	.
=171	=171	=171	=171	=171
1ryy	1ryy	1ryy	1a	-lu-
=172	=172	=172	=172	=172
1ryy	1ryy	1ryy	2b\	-ja
.	.	.	2dd\	al-
=173	=173	=173	=173	=173
1ryy	1ryy	1ryy	4cc\	-le-
.	.	.	8dd\L	.
.	.	.	8ee\J	.
.	.	.	8ff\L	.
.	.	.	8ee\	.
.	.	.	8dd\	.
.	.	.	8cc\J	.
=174	=174	=174	=174	=174
1ryy	1ryy	1ryy	4b\	.
.	.	.	8cc\L	.
.	.	.	8dd\J	.
.	.	.	8ee\L	.
.	.	.	8dd\	.
.	.	.	8cc\	.
.	.	.	8b\J	.
=175	=175	=175	=175	=175
1ryy	1ryy	1ryy	2cc\	.
.	.	.	2b\	-lu-
!	!	!	!LO:LB:g=original	!
=176	=176	=176	=176	=176
1ryy	1ryy	1ryy	2cc\	-ja
.	.	.	2cc\	al-
=177	=177	=177	=177	=177
1ryy	1ryy	1ryy	1dd	-le-
=178	=178	=178	=178	=178
1ryy	1ryy	1ryy	2ee\	.
.	.	.	2ff\	.
=179	=179	=179	=179	=179
1ryy	1ryy	1ryy	2gg\	.
.	.	.	2ff#X\	lu-
=180	=180	=180	=180	=180
1ryy	1ryy	1ryy	2gg\	-ja
.	.	.	2gg\	al-
=181	=181	=181	=181	=181
1ryy	1ryy	1ryy	1ff	-le-
=182	=182	=182	=182	=182
1ryy	1ryy	1ryy	1ee	.
=183	=183	=183	=183	=183
1ryy	1ryy	1ryy	2.dd\	-lu-
.	.	.	8cc\L	.
.	.	.	8dd\J	.
=184	=184	=184	=184	=184
1ryy	1ryy	1ryy	2ee\	-ja
.	.	.	2cc\	al-
=185	=185	=185	=185	=185
1ryy	1ryy	1ryy	1dd	-le-
=186	=186	=186	=186	=186
1ryy	1ryy	1ryy	1ee	.
=187	=187	=187	=187	=187
1ryy	1ryy	1ryy	1dd	.
=188	=188	=188	=188	=188
1ryy	1ryy	1ryy	1cc	.
=189	=189	=189	=189	=189
1ryy	1ryy	1ryy	2b\	.
.	.	.	2b\	-lu-
=190	=190	=190	=190	=190
1ryy	1ryy	1ryy	1cc	-ja
=191	=191	=191	=191	=191
1ryy	1ryy	1ryy	2dd\	al-
.	.	.	2ee\	-le-
!	!	!	!LO:LB:g=original	!
=192	=192	=192	=192	=192
1ryy	1ryy	1ryy	1dd	-lu-
=193	=193	=193	=193	=193
1ryy	1ryy	1ryy	2cc\	-ja
.	.	.	2cc\	al-
=194	=194	=194	=194	=194
1ryy	1ryy	1ryy	1cc	-le-
=195	=195	=195	=195	=195
1ryy	1ryy	1ryy	2a\	.
.	.	.	2g\	-lu-
=196	=196	=196	=196	=196
1ryy	1ryy	1ryy	2g/	-ja
.	.	.	2gg\	al-
=197	=197	=197	=197	=197
1ryy	1ryy	1ryy	1ff	-le-
=198	=198	=198	=198	=198
1ryy	1ryy	1ryy	2ee\	-lu-
.	.	.	1dd	.
=199	=199	=199	=199-	=199
1ryy	1ryy	1ryy	.	.
.	.	.	2ee\	.
=200	=200	=200	=200	=200
1ryy	1ryy	1ryy	1ff	.
=201	=201	=201	=201	=201
1ryy	1ryy	1ryy	2ee\	-ja
.	.	.	2cc\	al-
=202	=202	=202	=202	=202
1ryy	1ryy	1ryy	4cc\	-le-
.	.	.	8dd\L	.
.	.	.	8ee\J	.
.	.	.	2ff\	.
=203	=203	=203	=203	=203
1ryy	1ryy	1ryy	4b\	.
.	.	.	8cc\L	.
.	.	.	8dd\J	.
.	.	.	2ee\	.
=204	=204	=204	=204	=204
1ryy	1ryy	1ryy	2dd\	.
.	.	.	2dd\	-lu-
!	!	!	!LO:LB:g=original	!
=205	=205	=205	=205	=205
1ryy	1ryy	1ryy	2cc\	-ja
.	.	.	2r	.
=206	=206	=206	=206	=206
!	!	!	!LO:TX:a:t=1	!
1ryy	1ryy	1ryy	1r	.
=207	=207	=207	=207	=207
1ryy	1ryy	1ryy	2r	.
.	.	.	(4cc\	al-
.	.	.	4dd\)	.
=208	=208	=208	=208	=208
1ryy	1ryy	1ryy	2ee\	-le-
.	.	.	2dd\	-lu-
=209	=209	=209	=209	=209
1ryy	1ryy	1ryy	2dd\	-ja
.	.	.	1dd	al-
=210	=210	=210	=210-	=210
1ryy	1ryy	1ryy	.	.
.	.	.	2ee\	-le-
=211	=211	=211	=211	=211
1ryy	1ryy	1ryy	1ee	.
=212	=212	=212	=212	=212
1ryy	1ryy	1ryy	4ff\	.
.	.	.	8ee\L	.
.	.	.	8dd\J	.
.	.	.	2dd\	-lu-
=213	=213	=213	=213	=213
1ryy	1ryy	1ryy	2cc,<\	-ja
.	.	.	2cc\	al-
=214	=214	=214	=214	=214
1ryy	1ryy	1ryy	4cc\	-le-
.	.	.	8dd\L	.
.	.	.	8ee\J	.
.	.	.	2ff\	.
=215	=215	=215	=215	=215
1ryy	1ryy	1ryy	4b\	.
.	.	.	8cc\L	.
.	.	.	8dd\J	.
.	.	.	2ee\	.
=216	=216	=216	=216	=216
1ryy	1ryy	1ryy	2.dd\	.
.	.	.	4dd\	-lu-
=217	=217	=217	=217	=217
1ryy	1ryy	1ryy	2ee\	-ja
.	.	.	4r	.
.	.	.	4ee\	al-
=218	=218	=218	=218	=218
1ryy	1ryy	1ryy	2.dd\	-le-
.	.	.	4dd\	-lu-
=219	=219	=219	=219	=219
1ryy	1ryy	1ryy	4ee\	-ja
.	.	.	4ee\	al-
.	.	.	4.dd\	-le-
.	.	.	8dd\	-lu-
=220	=220	=220	=220	=220
1ryy	1ryy	1ryy	4ee\	-ja
.	.	.	4cc\	al-
.	.	.	4.dd\	-le-
.	.	.	8dd\	-lu-
=221	=221	=221	=221	=221
1ryy	1ryy	1ryy	2ee\	-ja.
!	!	!	!LO:TX:t=P:problem:fermata nad kreską końcową	!
.	.	.	2r	.
==	==	==	==	==
*-	*-	*-	*-	*-
!!!system-decoration: [g1]
!!!RDF**kern: > = above
!!!RDF**kern: < = below
!!!ENC: Andrzej Kubiczek
!!!END: 2021-04-08
!!!ENC: Katarzyna Serwa
!!!END: 2021-03-18
